X:1
T:Title
%%score { 1 | 2 }
L:1/8
M:6/8
K:C
V:1 treble nm="Grand Piano"
V:2 bass 
V:1
 z3 z2[Q:1/4=108] [EG] | [EG]2 [EG] [EG]2 [FA] | [EG]2 [DF] [CE]2 [DF] | [EG]2 [CE] [Ec]2 [FA] | %4
 [EG]3- [EG] z [EG] | B2 B B2 B | B2 B [FA]2 [FB] | [Ed]2 [Ec] [EG]2 E | D3- D z G | %9
 [EG]2 [EG] [EG]2 [FA] | [EG]2 [DF] [CE]2 [DF] | [EG]2 [CE] [Ec]2 [GB] | A3- A z A | d2 c B2 A | %14
 G2 c G2 E | [B,D]6 |[M:5/8] C- C3 z |[M:1/8] G |[M:3/4] [Ec]2 [Ec] [Ec]2 [Ec] | %19
 [Ge] [Ec]3 z [CGB] | [CFA]2 [CAc] [CGB]2 [CFA] | [CEG]4 z G | [Ec]2 [Ec] [Ec]2 [Ec] | %23
 [Ge] [Ec]3 z [EB] | [^FA]2 [Fe] [Fd]2 [Fc] | B4 z G | [Ec]2 [Ec] [Ec]2 [Ec] | [Ec] [Ec]3 z [Ec] | %28
 [Ge]2 [Gd] [Gc]2 [GB] | A4 z A | d2 c B2 A | G2 c G2 E | [B,D]6 |[M:5/8] C- C3 z |] %34
V:2
 z3 z2 [C,C] | [C,C]2 [C,C] [C,C]2 [C,C] | [C,C]2 [C,G,] [C,G,]2 [C,G,] | %3
 [C,G,]2 [C,G,] [C,G,]2 [C,C] | [C,C]3- [C,C] z [C,C] | [G,DF]2 [G,DF] [G,DF]2 [G,DF] | %6
 [G,DF]2 [G,DF][K:bass] [G,,G,]2 [G,,G,] | [C,G,]2 [C,G,] [C,G,]2 [E,G,C] | %8
 [G,B,]3- [G,B,] z [G,B,F] | [C,C]2 [C,C] [C,C]2 [C,C] | [C,C]2 [C,G,] [C,G,]2 [E,G,] | %11
 [C,G,]2 [C,G,] [C,G,]2 [E,C] | [F,CF]3- [F,CF] z [F,CF] | [F,A,F]2 [F,A,F] [F,CG]2 [F,CF] | %14
 [G,CE]2 [G,CE] [G,CE]2 [G,C] | [G,,F,]6 |[M:5/8] [E,G,]- [E,G,]3 z |[M:1/8] G, | %18
[M:3/4] [C,G,]2 [C,G,] [C,G,]2 [C,G,] | [C,C] [C,G,]3 z E, | F,2 F, F,2 F, | C,4 z G, | %22
 [C,G,]2 [C,G,] [C,G,]2 [C,G,] | [C,C] [C,G,]3 z [C,C] | [D,C]2 [D,C] [D,A,]2 [D,D] | %25
 [G,DF]4 z G, | [C,G,]2 [C,G,] [C,G,]2 [C,G,] | [C,G,] [C,G,]3 z [C,G,] | %28
 [C,C]2 [D,B,] [E,C]2 [E,C] | [F,CF]4 z [F,CF] | [F,A,F]2 [F,A,F] [F,CG]2 [F,CF] | %31
 [G,CE]2 [G,CE] [G,CE]2 [G,C] | [G,,F,]6 |[M:5/8] [C,E,]- [C,E,]3 z |] %34

